img/why-we/heart-tablet.svg

<svg width="46" height="46" viewBox="0 0 46 46" fill="none" xmlns="http://www.w3.org/2000/svg">
<g clip-path="url(#clip0_359_396)">
<path d="M12.9362 5.12714C14.3449 5.12714 16.8936 5.80133 21.0264 9.87233L23.0749 11.8891L25.0931 9.83927C27.9624 6.92402 31.0156 5.11277 33.0612 5.11277C35.8197 5.11277 37.9947 6.05577 40.115 8.17177C42.1131 10.1641 43.2142 12.8149 43.2142 15.6338C43.2157 18.4542 42.116 21.1064 40.0963 23.1218C39.9324 23.2885 31.247 32.6581 23.9704 40.5112C23.6283 40.8375 23.2359 40.885 23.0274 40.885C22.8219 40.885 22.4352 40.839 22.0931 40.5213C20.3206 38.549 7.46793 24.2588 5.97436 22.7667C3.9748 20.7715 2.87368 18.1193 2.87368 15.3003C2.87368 12.4814 3.9748 9.83208 5.9758 7.83683C7.92074 5.89333 10.1977 5.12714 12.9362 5.12714ZM12.9362 2.25214C9.49768 2.25214 6.46743 3.27995 3.94461 5.80133C-1.3152 11.0468 -1.3152 19.5525 3.94461 24.8008C5.4468 26.303 20.0202 42.5151 20.0202 42.5151C20.8511 43.346 21.9407 43.7585 23.0289 43.7585C24.1171 43.7585 25.2024 43.346 26.0347 42.5151C26.0347 42.5151 41.9766 25.3082 42.1462 25.1371C47.4031 19.8874 47.4031 11.3803 42.1462 6.13483C39.5357 3.52864 36.619 2.23633 33.0626 2.23633C29.6644 2.23633 25.8751 4.94602 23.0447 7.82102C20.1251 4.94602 16.4537 2.25214 12.9376 2.25214H12.9362Z" fill="#FBD8D5"/>
</g>
<defs>
<clipPath id="clip0_359_396">
<rect width="46" height="46" fill="white"/>
</clipPath>
</defs>
</svg>

<svg width="46" height="46" fill="none" xmlns="http://www.w3.org/2000/svg"><g clip-path="url(#clip0_359_396)"><path d="M12.936 5.127c1.409 0 3.958.674 8.09 4.745l2.049 2.017 2.018-2.05c2.87-2.915 5.923-4.726 7.968-4.726 2.759 0 4.934.943 7.054 3.059a10.47 10.47 0 013.1 7.462c0 2.82-1.099 5.472-3.119 7.488-.164.166-8.849 9.536-16.126 17.39a1.356 1.356 0 01-.943.373c-.205 0-.592-.046-.934-.364C20.321 38.55 7.468 24.26 5.974 22.767a10.48 10.48 0 01-3.1-7.467c0-2.819 1.1-5.468 3.102-7.463 1.945-1.944 4.222-2.71 6.96-2.71zm0-2.875c-3.438 0-6.469 1.028-8.991 3.55-5.26 5.245-5.26 13.75 0 18.999C5.447 26.303 20.02 42.515 20.02 42.515a4.24 4.24 0 003.009 1.243 4.235 4.235 0 003.006-1.243s15.942-17.207 16.111-17.378c5.257-5.25 5.257-13.757 0-19.002-2.61-2.606-5.527-3.899-9.083-3.899-3.399 0-7.188 2.71-10.018 5.585-2.92-2.875-6.591-5.569-10.107-5.569h-.002z" fill="#FBD8D5"/></g><defs><clipPath id="clip0_359_396"><path fill="#fff" d="M0 0h46v46H0z"/></clipPath></defs></svg>
